X: 7937
T:Tom Tolleys Hornpipe
B:Joshua Jackson ms (Geoff Bowen)
O:England
N:Tom Fowlers in Winder, but 8-bar 2nd part
R:Hornpipe
M:2/4
K:G
(Bc)|\
(dc)(BA) (Gg)(fg)| Te4 d4| cdcB ABAG| F4E4|\
(DE)(FG) A2B2| (c3d/e/)d2 c2| BAGA D2F2| G6::
d2|\
g2bg e2ag| Tf4d4| g2ag e2ag| f4 d2ef|\
gddd gddd| gdgd gddd|
(g3f) (ed)(cB)| ABAG F3E|\
DEFG A2B2| c3d/e/ d2c2| BAGA D2F2| G6 :|
